proprietary/assets/icons/lichaam/hand-met-wond.svg

<svg enable-background="new 0 0 64 64" height="64" viewBox="0 0 64 64" width="64" xmlns="http://www.w3.org/2000/svg"><path d="m0 0h64v64h-64z" fill="none"/><path d="m42.6 35.4c-.4-2.3-2.6-3-2.6-3 0-.1 2.4-1.8 1.7-4.8-.5-2.1-2.4-2.9-2.9-3.1 6.6-2.6 16.2-6.5 17.3-6.9 1.7-.6 2.6-2.3 2.2-4.1-.5-1.7-2.2-2.8-4-2.3-1.3.4-20.1 5.6-34.3 9.8 0-.1-.2-.3.2-.5 1-.7 5.8-3 6.6-3.4-2-1.5-4.7-3.6-8.2-2.8-7.5 1.7-9.4 10.3-16.3 15.7l5.5 22.6c.7-.2 2.6-.6 3.1-.8 6.5-1.3 5.1 3.1 16.1-.1 3-.8 9.3-2.7 12.5-4.9 3-2.1 2.9-5.3 1.3-6.7.9-.7 2.2-2.4 1.8-4.7zm19.7-2.1c-.8-3.9-4.6-6.4-6.5-11.6-.2-.6-.5-.7-.8-.7s-.6.1-.8.7c-1.9 5.2-5.7 7.6-6.5 11.6-.9 4.2 3.2 7.7 7.3 7.7s8.2-3.5 7.3-7.7zm-7.8 4.7c-1.4 0-2.9-.7-3.7-1.8-.6-.7-.8-1.5-.7-2.3.3-1.4 1.3-2.7 2.5-4.4.6-.8 1.2-1.7 1.9-2.6 0 0 0 .1.1.1-.8 2.8-1.7 5.3-1.7 7.1 0 1.6 1.2 3.4 2 3.9-.2 0-.3 0-.4 0z"/></svg>

<?xml version="1.0" encoding="utf-8"?>
<!-- Generator: Adobe Illustrator 21.0.2, SVG Export Plug-In . SVG Version: 6.00 Build 0)  -->
<!DOCTYPE svg PUBLIC "-//W3C//DTD SVG 1.1//EN" "http://www.w3.org/Graphics/SVG/1.1/DTD/svg11.dtd">
<svg version="1.1" xmlns="http://www.w3.org/2000/svg" xmlns:xlink="http://www.w3.org/1999/xlink" x="0px" y="0px" width="64px"
	 height="64px" viewBox="0 0 64 64" style="enable-background:new 0 0 64 64;" xml:space="preserve">
<style type="text/css">
	.st0{fill:none;}
</style>
<g id="_x36_4px_Box">
	<rect class="st0" width="64" height="64"/>
</g>
<g id="Icon">
	<g>
		<g>
			<path d="M42.6,35.4c-0.4-2.3-2.6-3-2.6-3c0-0.1,2.4-1.8,1.7-4.8c-0.5-2.1-2.4-2.9-2.9-3.1c6.6-2.6,16.2-6.5,17.3-6.9
				c1.7-0.6,2.6-2.3,2.2-4.1l0,0c-0.5-1.7-2.2-2.8-4-2.3C53,11.6,34.2,16.8,20,21c0-0.1-0.2-0.3,0.2-0.5c1-0.7,5.8-3,6.6-3.4
				c-2-1.5-4.7-3.6-8.2-2.8C11.1,16,9.2,24.6,2.3,30l5.5,22.6c0.7-0.2,2.6-0.6,3.1-0.8c6.5-1.3,5.1,3.1,16.1-0.1
				c3-0.8,9.3-2.7,12.5-4.9c3-2.1,2.9-5.3,1.3-6.7C41.7,39.4,43,37.7,42.6,35.4z M62.3,33.3c-0.8-3.9-4.6-6.4-6.5-11.6
				C55.6,21.1,55.3,21,55,21c-0.3,0-0.6,0.1-0.8,0.7c-1.9,5.2-5.7,7.6-6.5,11.6C46.8,37.5,50.9,41,55,41
				C59.1,41,63.2,37.5,62.3,33.3z M54.5,38c-1.4,0-2.9-0.7-3.7-1.8c-0.6-0.7-0.8-1.5-0.7-2.3c0.3-1.4,1.3-2.7,2.5-4.4
				c0.6-0.8,1.2-1.7,1.9-2.6c0,0,0,0.1,0.1,0.1c-0.8,2.8-1.7,5.3-1.7,7.1c0,1.6,1.2,3.4,2,3.9C54.7,38,54.6,38,54.5,38z"/>
		</g>
	</g>
</g>
</svg>
